X:1
T:Ad Infernos, 87.87
T:Ad Infernos, 87.87
T:Walter Hay Sangster, 1875
T:Public Domain Courtesy of the Cyber Hymnal™
C:Walter Hay Sangster, 1875
Z:Public Domain
Z:Courtesy of the Cyber Hymnal™
%%score ( 1 2 ) ( 3 4 )
L:1/8
Q:1/4=107
M:4/4
K:Eb
V:1 treble 
V:2 treble 
V:3 bass 
V:4 bass 
V:1
 [EG]2 [EG]2 [B,G]2 [=B,G]2 | [CG]2 [Cc]2 [Dc]2 [D=B]2 | [DG]2 [DG]2 [CG]2 [EA]2 | %3
 [EB]2 [EA]2 [DF]4 | [FB]2 [FB]2 [Fc]2 [FB]2 | [Ee]2 [Fd]2 [Ec]2 [DB]2 | [EB]2 [EG]2 [CE]2 [EA]2 | %7
 [EG]2 [DF]2 E4 x |] %8
V:2
 x8 | x8 | x8 | x8 | x8 | x8 | x8 | x4 E4 x |] %8
V:3
 [E,B,]2 [E,B,]2 [E,G,]2 [D,F,]2 | [C,E,]2 [A,,E,]2 [G,,G,]2 [G,,G,]2 | %2
 [G,=B,]2 [F,B,]2 [E,C]2 [C,C]2 | [G,,B,]2 [A,,C]2 [B,,B,]4 | [B,D]2 [B,D]2 [A,D]2 [A,D]2 | %5
 [G,B,]2 B,2 [F,=A,]2 [B,,B,]2 | [G,,B,]2 [G,,B,]2 [C,G,]2 [C,E,]2 | B,3 (z B,) [E,G,]4 |] %8
V:4
 x8 | x8 | x8 | x8 | x8 | x2 (F,E,) x4 | x8 | B,,2 B,,2 x5 |] %8

